X:148
T:Reel 148
M:4/4
K:Amix
L:1/8
ED|CB,A,B, CDEC|DFED CA,A,D|CB,A,B, CDEC|DFEC A,3:|AB|cBAG AGEG|ABAF GEDd|cBAG AGEC|DFEC A,2|EB|cBAG BAGB|cAeA dBGB|cBAG ABcA|BAGB A2ED|
